static/img/mastodon.svg

<svg xmlns="http://www.w3.org/2000/svg" viewBox="0 0 448 512"><!--! Font Awesome Pro 6.4.2 by @fontawesome - https://fontawesome.com License - https://fontawesome.com/license (Commercial License) Copyright 2023 Fonticons, Inc. --><path d="M433 179.11c0-97.2-63.71-125.7-63.71-125.7-62.52-28.7-228.56-28.4-290.48 0 0 0-63.72 28.5-63.72 125.7 0 115.7-6.6 259.4 105.63 289.1 40.51 10.7 75.32 13 103.33 11.4 50.81-2.8 79.32-18.1 79.32-18.1l-1.7-36.9s-36.31 11.4-77.12 10.1c-40.41-1.4-83-4.4-89.63-54a102.54 102.54 0 0 1-.9-13.9c85.63 20.9 158.65 9.1 178.75 6.7 56.12-6.7 105-41.3 111.23-72.9 9.8-49.8 9-121.5 9-121.5zm-75.12 125.2h-46.63v-114.2c0-49.7-64-51.6-64 6.9v62.5h-46.33V197c0-58.5-64-56.6-64-6.9v114.2H90.19c0-122.1-5.2-147.9 18.41-175 25.9-28.9 79.82-30.8 103.83 6.1l11.6 19.5 11.6-19.5c24.11-37.1 78.12-34.8 103.83-6.1 23.71 27.3 18.4 53 18.4 175z"/></svg>

<svg width="448" height="512" viewBox="0 0 448 512" fill="none" xmlns="http://www.w3.org/2000/svg">
<path d="M433 179.11C433 81.91 369.29 53.41 369.29 53.41C306.77 24.71 140.73 25.01 78.8099 53.41C78.8099 53.41 15.0899 81.91 15.0899 179.11C15.0899 294.81 8.48994 438.51 120.72 468.21C161.23 478.91 196.04 481.21 224.05 479.61C274.86 476.81 303.37 461.51 303.37 461.51L301.67 424.61C301.67 424.61 265.36 436.01 224.55 434.71C184.14 433.31 141.55 430.31 134.92 380.71C134.305 376.102 134.005 371.458 134.02 366.81C219.65 387.71 292.67 375.91 312.77 373.51C368.89 366.81 417.77 332.21 424 300.61C433.8 250.81 433 179.11 433 179.11ZM357.88 304.31H311.25V190.11C311.25 140.41 247.25 138.51 247.25 197.01V259.51H200.92V197C200.92 138.5 136.92 140.4 136.92 190.1V304.3H90.1899C90.1899 182.2 84.9899 156.4 108.6 129.3C134.5 100.4 188.42 98.5 212.43 135.4L224.03 154.9L235.63 135.4C259.74 98.3 313.75 100.6 339.46 129.3C363.17 156.6 357.86 182.3 357.86 304.3L357.88 304.31Z" fill="#6B7280"/>
</svg>
